flaticon/delivery/trolley-4.svg

<svg xmlns="http://www.w3.org/2000/svg" width="32" height="32" viewBox="0 0 24 24">
    <path d="M2.398438 17.601562C2.160156 17.601562 2 17.761719 2 18 2 18.238281 2.160156 18.398438 2.398438 18.398438 2.640625 18.398438 2.800781 18.238281 2.800781 18 2.800781 17.761719 2.640625 17.601562 2.398438 17.601562zM4 17.601562C3.761719 17.601562 3.601562 17.761719 3.601562 18 3.601562 18.238281 3.761719 18.398438 4 18.398438 4.238281 18.398438 4.398438 18.238281 4.398438 18 4.398438 17.761719 4.238281 17.601562 4 17.601562zM5.601562 17.601562C5.359375 17.601562 5.199219 17.761719 5.199219 18 5.199219 18.238281 5.359375 18.398438 5.601562 18.398438 5.839844 18.398438 6 18.238281 6 18 6 17.761719 5.839844 17.601562 5.601562 17.601562zM7.199219 17.601562C6.960938 17.601562 6.800781 17.761719 6.800781 18 6.800781 18.238281 6.960938 18.398438 7.199219 18.398438 7.441406 18.398438 7.601562 18.238281 7.601562 18 7.601562 17.761719 7.441406 17.601562 7.199219 17.601562zM8.800781 17.601562C8.558594 17.601562 8.398438 17.761719 8.398438 18 8.398438 18.238281 8.558594 18.398438 8.800781 18.398438 9.039062 18.398438 9.199219 18.238281 9.199219 18 9.199219 17.761719 9.039062 17.601562 8.800781 17.601562zM10.398438 17.601562C10.160156 17.601562 10 17.761719 10 18 10 18.238281 10.160156 18.398438 10.398438 18.398438 10.640625 18.398438 10.800781 18.238281 10.800781 18 10.800781 17.761719 10.640625 17.601562 10.398438 17.601562zM12 17.601562C11.761719 17.601562 11.601562 17.761719 11.601562 18 11.601562 18.238281 11.761719 18.398438 12 18.398438 12.238281 18.398438 12.398438 18.238281 12.398438 18 12.398438 17.761719 12.238281 17.601562 12 17.601562zM13.601562 17.601562C13.359375 17.601562 13.199219 17.761719 13.199219 18 13.199219 18.238281 13.359375 18.398438 13.601562 18.398438 13.839844 18.398438 14 18.238281 14 18 14 17.761719 13.839844 17.601562 13.601562 17.601562zM15.199219 17.601562C14.960938 17.601562 14.800781 17.761719 14.800781 18 14.800781 18.238281 14.960938 18.398438 15.199219 18.398438 15.441406 18.398438 15.601562 18.238281 15.601562 18 15.601562 17.761719 15.441406 17.601562 15.199219 17.601562zM16.800781 17.601562C16.558594 17.601562 16.398438 17.761719 16.398438 18 16.398438 18.238281 16.558594 18.398438 16.800781 18.398438 17.039062 18.398438 17.199219 18.238281 17.199219 18 17.199219 17.761719 17.039062 17.601562 16.800781 17.601562zM18.398438 17.601562C18.160156 17.601562 18 17.761719 18 18 18 18.238281 18.160156 18.398438 18.398438 18.398438 18.640625 18.398438 18.800781 18.238281 18.800781 18 18.800781 17.761719 18.640625 17.601562 18.398438 17.601562zM20 17.601562C19.761719 17.601562 19.601562 17.761719 19.601562 18 19.601562 18.238281 19.761719 18.398438 20 18.398438 20.238281 18.398438 20.398438 18.238281 20.398438 18 20.398438 17.761719 20.238281 17.601562 20 17.601562zM21.601562 17.601562C21.359375 17.601562 21.199219 17.761719 21.199219 18 21.199219 18.238281 21.359375 18.398438 21.601562 18.398438 21.839844 18.398438 22 18.238281 22 18 22 17.761719 21.839844 17.601562 21.601562 17.601562zM21.601562 17.601562"/>
    <path d="M 22 16 L 12 16 L 12 6 C 12 5.320312 11.480469 4.800781 10.800781 4.800781 L 8.800781 4.800781 C 8.800781 4.359375 8.441406 4 8 4 L 5.601562 4 C 5.160156 4 4.800781 4.359375 4.800781 4.800781 L 2.800781 4.800781 C 2.121094 4.800781 1.601562 5.320312 1.601562 6 L 1.601562 16.039062 C 0.675781 16.21875 0 17.015625 0 18 C 0 19.121094 0.878906 20 2 20 L 22 20 C 23.121094 20 24 19.121094 24 18 C 24 16.878906 23.121094 16 22 16 Z M 5.601562 4.800781 L 8 4.800781 L 8 8.238281 L 6.800781 7.039062 L 5.601562 8.238281 Z M 2.398438 6 C 2.398438 5.761719 2.558594 5.601562 2.800781 5.601562 L 4.800781 5.601562 L 4.800781 8.519531 C 4.800781 8.800781 4.960938 9.039062 5.199219 9.160156 C 5.480469 9.238281 5.761719 9.199219 5.960938 9 L 6.800781 8.160156 L 7.640625 9 C 7.761719 9.121094 7.960938 9.199219 8.121094 9.199219 C 8.199219 9.199219 8.28125 9.199219 8.359375 9.160156 C 8.640625 9.039062 8.800781 8.800781 8.800781 8.519531 L 8.800781 5.601562 L 10.800781 5.601562 C 11.039062 5.601562 11.199219 5.761719 11.199219 6 L 11.199219 16 L 2.398438 16 Z M 22 19.199219 L 2 19.199219 C 1.320312 19.199219 0.800781 18.679688 0.800781 18 C 0.800781 17.320312 1.320312 16.800781 2 16.800781 L 22 16.800781 C 22.679688 16.800781 23.199219 17.320312 23.199219 18 C 23.199219 18.679688 22.679688 19.199219 22 19.199219 Z M 22 19.199219"/>
    <path d="M14.398438 10.800781L20.875 10.800781 19.320312 12.078125C19.160156 12.199219 19.121094 12.480469 19.28125 12.640625 19.359375 12.761719 19.480469 12.800781 19.601562 12.800781 19.679688 12.800781 19.800781 12.761719 19.839844 12.761719L22.238281 10.761719C22.359375 10.679688 22.398438 10.558594 22.398438 10.441406 22.398438 10.433594 22.398438 10.429688 22.398438 10.425781 22.398438 10.417969 22.398438 10.410156 22.398438 10.398438 22.398438 10.199219 22.289062 10.054688 22.113281 10.011719L19.839844 8.121094C19.679688 7.960938 19.441406 8 19.28125 8.160156 19.121094 8.320312 19.160156 8.558594 19.320312 8.71875L20.875 10 14.398438 10C14.160156 10 14 10.160156 14 10.398438 14 10.640625 14.160156 10.800781 14.398438 10.800781zM6.800781 12L3.601562 12C3.359375 12 3.199219 12.160156 3.199219 12.398438L3.199219 14.800781C3.199219 15.039062 3.359375 15.199219 3.601562 15.199219L6.800781 15.199219C7.039062 15.199219 7.199219 15.039062 7.199219 14.800781L7.199219 12.398438C7.199219 12.160156 7.039062 12 6.800781 12zM6.398438 14.398438L4 14.398438 4 12.800781 6.398438 12.800781zM6.398438 14.398438"/>
</svg>

<svg xmlns="http://www.w3.org/2000/svg" width="32" height="32" viewBox="0 0 24 24">
    <path d="M2.398 17.602c-.238 0-.398.16-.398.398 0 .238.16.398.398.398.243 0 .403-.16.403-.398 0-.238-.16-.398-.403-.398zm0 0M4 17.602c-.238 0-.398.16-.398.398 0 .238.16.398.398.398.238 0 .398-.16.398-.398 0-.238-.16-.398-.398-.398zm0 0M5.602 17.602c-.243 0-.403.16-.403.398 0 .238.16.398.403.398.238 0 .398-.16.398-.398 0-.238-.16-.398-.398-.398zm0 0M7.2 17.602c-.24 0-.4.16-.4.398 0 .238.16.398.4.398.241 0 .402-.16.402-.398 0-.238-.16-.398-.403-.398zm0 0M8.8 17.602c-.241 0-.402.16-.402.398 0 .238.16.398.403.398.238 0 .398-.16.398-.398 0-.238-.16-.398-.398-.398zm0 0M10.398 17.602c-.238 0-.398.16-.398.398 0 .238.16.398.398.398.243 0 .403-.16.403-.398 0-.238-.16-.398-.403-.398zm0 0M12 17.602c-.238 0-.398.16-.398.398 0 .238.16.398.398.398.238 0 .398-.16.398-.398 0-.238-.16-.398-.398-.398zm0 0M13.602 17.602c-.243 0-.403.16-.403.398 0 .238.16.398.403.398.238 0 .398-.16.398-.398 0-.238-.16-.398-.398-.398zm0 0M15.2 17.602c-.24 0-.4.16-.4.398 0 .238.16.398.4.398.241 0 .402-.16.402-.398 0-.238-.16-.398-.403-.398zm0 0M16.8 17.602c-.241 0-.402.16-.402.398 0 .238.16.398.403.398.238 0 .398-.16.398-.398 0-.238-.16-.398-.398-.398zm0 0M18.398 17.602c-.238 0-.398.16-.398.398 0 .238.16.398.398.398.243 0 .403-.16.403-.398 0-.238-.16-.398-.403-.398zm0 0M20 17.602c-.238 0-.398.16-.398.398 0 .238.16.398.398.398.238 0 .398-.16.398-.398 0-.238-.16-.398-.398-.398zm0 0M21.602 17.602c-.243 0-.403.16-.403.398 0 .238.16.398.403.398.238 0 .398-.16.398-.398 0-.238-.16-.398-.398-.398zm0 0"/>
    <path d="M22 16H12V6c0-.68-.52-1.2-1.2-1.2h-2c0-.44-.359-.8-.8-.8H5.602c-.442 0-.801.36-.801.8h-2c-.68 0-1.2.52-1.2 1.2v10.04A1.973 1.973 0 0 0 0 18c0 1.121.879 2 2 2h20c1.121 0 2-.879 2-2s-.879-2-2-2zM5.602 4.8H8v3.438L6.8 7.04l-1.198 1.2zM2.398 6c0-.238.16-.398.403-.398h2V8.52c0 .28.16.52.398.64.281.078.563.04.762-.16l.84-.84.84.84c.12.121.32.2.48.2.078 0 .16 0 .238-.04.282-.12.442-.36.442-.64V5.602h2c.238 0 .398.16.398.398v10H2.4zM22 19.2H2c-.68 0-1.2-.52-1.2-1.2 0-.68.52-1.2 1.2-1.2h20c.68 0 1.2.52 1.2 1.2 0 .68-.52 1.2-1.2 1.2zm0 0"/>
    <path d="M14.398 10.8h6.477l-1.555 1.278c-.16.121-.199.402-.039.563.078.12.2.16.32.16.079 0 .2-.04.239-.04l2.398-2a.367.367 0 0 0 .16-.32v-.015-.028c0-.199-.109-.343-.285-.386l-2.273-1.89c-.16-.161-.399-.122-.559.038-.16.16-.12.399.04.559L20.874 10h-6.477c-.238 0-.398.16-.398.398 0 .243.16.403.398.403zm0 0M6.8 12H3.603c-.243 0-.403.16-.403.398v2.403c0 .238.16.398.403.398H6.8c.238 0 .398-.16.398-.398v-2.403c0-.238-.16-.398-.398-.398zm-.402 2.398H4v-1.597h2.398zm0 0"/>
</svg>
